X: 1333
T: Mahmur Bakışı Âşıka...
C: Şekerci Cemil Bey
O: Turkey
F: http://compmusic.upf.edu/node/140
N: kurdilihicazkar--sarki--musemmen--mahmur_bakisi--sekerci_cemil_bey
N: makam= kurdilihicazkar
N: form= sarki
N: usul= musemmen = 8/8
M: 8/8
L: 1/16
K: C _B _e _A 
Q: 1/4=138
%%MIDI tuningsystem comma53
g2f2 =e2d2 {e}def6  | f2e2 d2c2 {d}cde6  | \
w:  ARANAĞME  |   | 
e2d2 c2=B2 c2d2 =e2f2  | 
w:   | 
gb=ag gffe edd6  | g2f2 =e2d2 {e}def6  | \
w:   |   | 
f2e2 d2c2 d2e6  | 
w:   | 
e2d2 c2B2 edcB AGF2  | dcc2 cBBA AGG6  | 
w:   |   | 
g4 =a2b2 a2g2 ^f2e2  | ^f2g2 =abag gfg6  | \
w:  Mah *  mur   |  ba *  kı *  şı   | 
g4 b2=a2 g2^f2 e2d2  | 
w:  â şı ka  *  bin   | 
e2d2 g2g^f fegf e2ed  | d4 dedc _1/4B_7/8AG6  | \
w:  lut *  fa  be *  *  *  del  |  dir   SAZ  | 
g4 =a2b2 a2g2 ^f2e2  | 
w:  Mah *  mur   | 
^f2g2 =abag gfg6  | g4 b2=a2 g2^f2 e2d2  | \
w:  ba *  kı *  şı   |  â şı ka  *  bin   | 
e2d2 g2g^f fegf e2ed  | 
w:  lut *  fa  be *  *  *  del  | 
d4 _1/4efgf efg6  | g2f2 e2d2 _1/4e2f2 g2{a}gf  | \
w:  dir   SAZ  |  Val *  *  la  | 
f2e2 d2c2 Bcd6  | 
w:  hi  *  gü zel   | 
d2_1/4e2 f2gf _edcB AGF2  | e2d2 c2B2 c2B2 A2AG  | 
w:  göz *  le rin  *  *  *  bil  |  lâ *  hi  gü *  zel  | 
G4 _1/4efgf efg6  | g2f2 e2d2 _1/4e2f2 g2{a}gf  | \
w:  dir   SAZ  |  Val *  *  la  | 
f2e2 d2c2 Bcd6  | 
w:  hi  *  gü zel   | 
d2_1/4e2 f2gf _edcB AGF2  | e2d2 c2B2 c2B2 A2AG  | 
w:  göz *  le rin  *  *  *  bil  |  lâ *  hi  gü *  zel  | 
G4 dedc _1/4Bcd6  | c4 d2d4d4{e}d2  | \
w:  dir   SAZ  |  Bir  *  ker  | 
b=ag2 gff_1/4e edd4z2  | 
w:  re  *  *  ni *  gâh   | 
g4 b2=a2 g2^f2 e2d2  | e2d2 g2g^f fegf e2ed  | \
w:  et me si  *  ak  |  sây_ *  i  e *  *  *  mel  | 
d4 dedc _1/4Bcd6  | 
w:  dir   SAZ  | 
c4 d2d4d4{e}d2  | b=ag2 gff_1/4e edd4z2  | \
w:  Bir  *  ker  |  re  *  *  ni *  gâh   | 
g4 b2=a2 g2^f2 e2d2  | 
w:  et me si  *  ak  | 
e2d2 g2g^f fegf e2ed  | d4 _1/4efgf efg6  | \
w:  sây_ *  i  e *  *  *  mel  |  dir   SAZ  | 
g2f2 e2d2 _1/4e2f2 g2{a}gf  | 
w:  Val *  *  la  | 
f2e2 d2c2 Bcd6  | d2_1/4e2 f2gf _edcB AGF2  | \
w:  hi  *  gü zel   |  göz *  le rin  *  *  *  bil  | 
e2d2 c2B2 c2B2 A2AG  | 
w:  lâ *  hi  gü *  zel  | 
G4 _1/4efgf efg6  | g2f2 e2d2 _1/4e2f2 g2{a}gf  | \
w:  dir   SAZ  |  Val *  *  la  | 
f2e2 d2c2 Bcd6  | 
w:  hi  *  gü zel   | 
d2_1/4e2 f2gf _edcB AGF2  | e2d2 c2B2 c2B2 A2AG  | 
w:  göz *  le rin  *  *  *  bil  |  lâ *  hi  gü *  zel  | 
G4 |
w:  dir    | 


